src/images/single-assets/CRO.svg

<svg xmlns="http://www.w3.org/2000/svg" width="600" height="600" fill="none"><circle cx="300" cy="300" r="300" fill="#fff"/><path fill="#03316C" fill-rule="evenodd" d="M115 191.731 300 85l185 106.731v213.461L300 511.923 115 405.192zm111.964-14.453h145.701l17.425 74.118H209.91zm37.073 173.437 4.82-46.324-15.942-41.506h94.168l-15.571 41.506 4.449 46.324h-71.924m108.999 77.825h-26.323L315.2 399.634V384.81l32.625-31.13v-49.289l42.636-27.794 48.567 36.688zm-119.008.37 31.513-29.277V384.81l-32.625-31.13v-49.289l-43.006-27.424-48.938 36.318 66.362 115.625z" clip-rule="evenodd"/></svg>

<svg width="600" height="600" viewBox="0 0 600 600" fill="none" xmlns="http://www.w3.org/2000/svg">
<circle cx="300" cy="300" r="300" fill="white"/>
<path fill-rule="evenodd" clip-rule="evenodd" d="M115 191.731L300 85L485 191.731V405.192L300 511.923L115 405.192V191.731ZM226.964 177.278H372.665L390.09 251.396H209.91L226.964 177.278ZM264.037 350.715L268.857 304.391L252.915 262.885H347.083L331.512 304.391L335.961 350.715H299.628H264.037ZM373.036 428.54H346.713L315.2 399.634V384.81L347.825 353.68V304.391L390.461 276.597L439.028 313.285L373.036 428.54ZM254.028 428.91L285.541 399.633V384.81L252.916 353.68V304.391L209.91 276.967L160.972 313.285L227.334 428.91H254.028Z" fill="#03316C"/>
</svg>
